lib/icons/external-link.svg

<svg width="12" height="12" viewBox="0 0 12 12" fill="none" xmlns="http://www.w3.org/2000/svg">
<path fill-rule="evenodd" clip-rule="evenodd" d="M0.5 0.000732422C0.223858 0.000732422 0 0.22459 0 0.500732V11.4992C0 11.7753 0.223858 11.9992 0.5 11.9992H11.4697C11.7458 11.9992 11.9697 11.7753 11.9697 11.4992V6.88582C11.9697 6.60968 11.7458 6.38582 11.4697 6.38582C11.1935 6.38582 10.9697 6.60968 10.9697 6.88582V10.9992H1V1.00073H5.12606C5.4022 1.00073 5.62606 0.776875 5.62606 0.500732C5.62606 0.22459 5.4022 0.000732422 5.12606 0.000732422H0.5ZM7.96315 0.000732422C7.687 0.000732422 7.46315 0.22459 7.46315 0.500732C7.46315 0.776875 7.687 1.00073 7.96315 1.00073H10.2994L4.07146 7.18282C3.87548 7.37736 3.87431 7.69394 4.06885 7.88992C4.26339 8.0859 4.57997 8.08707 4.77596 7.89253L10.9697 1.74438V4.16914C10.9697 4.44528 11.1935 4.66914 11.4697 4.66914C11.7458 4.66914 11.9697 4.44528 11.9697 4.16914V0.686201C12.0348 0.509449 11.9968 0.303172 11.8554 0.160663C11.8009 0.105818 11.7369 0.0662292 11.6687 0.0419174C11.6077 0.0154221 11.5404 0.000732422 11.4697 0.000732422H7.96315Z" fill="#7A859E"/>
</svg>

<svg width="12" height="12" fill="none" xmlns="http://www.w3.org/2000/svg"><path fill-rule="evenodd" clip-rule="evenodd" d="M.5 0a.5.5 0 0 0-.5.5v11a.5.5 0 0 0 .5.5h10.97a.5.5 0 0 0 .5-.5V6.885a.5.5 0 0 0-1 0v4.113H1V1.001h4.126a.5.5 0 1 0 0-1H.5Zm7.463 0a.5.5 0 1 0 0 1H10.3L4.071 7.184a.5.5 0 1 0 .705.71l6.194-6.149V4.17a.5.5 0 1 0 1 0V.686a.5.5 0 0 0-.301-.644.498.498 0 0 0-.2-.041H7.964Z" fill="#7A859E"/></svg>
